Catalina-light/actions/16/resource-calendar-insert.svg

<svg xmlns="http://www.w3.org/2000/svg" width="16" height="16" viewBox="0 0 16 16">
 <defs>
  <style id="current-color-scheme" type="text/css">
   .ColorScheme-Text { color:#5c616c; } .ColorScheme-Highlight { color:#5294e2; }
  </style>
 </defs>
 <path style="fill:currentColor" class="ColorScheme-Text" d="M 3.0039062 1 C 0.75390625 1 1.0039063 3 1.0039062 3 L 1.0039062 15 L 7 15 L 7 13 L 3.0039062 13 L 3.0039062 3 L 13.003906 3 L 13.003906 7 L 15 7 L 15.003906 3 C 15.003906 1 13.003906 1 13.003906 1 L 3.0039062 1 z M 4.0039062 4 L 4.0039062 6 L 6.0039062 6 L 6.0039062 4 L 4.0039062 4 z M 7.0039062 4 L 7.0039062 6 L 9.0039062 6 L 9.0039062 4 L 7.0039062 4 z M 10.003906 4 L 10.003906 6 L 12.003906 6 L 12.003906 4 L 10.003906 4 z M 4.0039062 7 L 4.0039062 9 L 6.0039062 9 L 6.0039062 7 L 4.0039062 7 z M 11 9 L 11 11 L 9 11 L 9 13 L 11 13 L 11 15 L 13 15 L 13 13 L 15 13 L 15 11 L 13 11 L 13 9 L 11 9 z M 4.0039062 10 L 4.0039062 12 L 6.0039062 12 L 6.0039062 10 L 4.0039062 10 z"/>
</svg>

<svg width="16" height="16" viewBox="0 0 16 16" xmlns="http://www.w3.org/2000/svg">
<defs>
<style id="current-color-scheme" type="text/css">.ColorScheme-Text { color:#5c616c; } .ColorScheme-Highlight { color:#5294e2; }</style>
</defs>
<path class="ColorScheme-Text" d="m3.0039 1c-2.25 0-2 2-2 2v12h5.9961v-2h-3.9961v-10h10v4h1.9961l0.003906-4c0-2-2-2-2-2h-10zm1 3v2h2v-2h-2zm3 0v2h2v-2h-2zm3 0v2h2v-2h-2zm-6 3v2h2v-2h-2zm6.9961 2v2h-2v2h2v2h2v-2h2v-2h-2v-2h-2zm-6.9961 1v2h2v-2h-2z" fill="#363636"/>
</svg>
